static/images/mobile/copyright/wikipedia-wordmark-awa.svg

<?xml version="1.0" encoding="UTF-8"?>
<svg width="120px" height="26px" viewBox="0 0 120 26" version="1.1" xmlns="http://www.w3.org/2000/svg" xmlns:xlink="http://www.w3.org/1999/xlink">
    <title>awa-wordmark</title>
    <g id="Page-1" stroke="none" stroke-width="1" fill="none" fill-rule="evenodd">
        <path d="M118.825449,7.2989979 L119.496621,8.24982522 L120,8.8091354 L120,9.06082498 L116.196691,9.06082498 L116.196691,25.6443719 L115.861105,25.6443719 L115.161967,25.1130273 L114.239105,24.5257516 L114.239105,9.06082498 L108.590072,9.06082498 L108.590072,25.6443719 L108.254486,25.6443719 L107.555348,25.1130273 L106.604521,24.5257516 C106.604521,24.5257516 106.744349,22.1207178 106.744349,19.2123048 C106.157073,19.9394081 104.758797,20.8902354 102.801212,20.8902354 C99.6131438,20.8902354 97.6555581,18.5970636 96.0894896,15.3810301 C99.6970403,14.2064787 100.480075,13.0319273 100.480075,11.8014449 C100.480075,10.6828245 99.7809368,9.7319972 99.1936612,9.06082498 L92.9014216,9.06082498 L92.9014216,12.7243067 C92.9014216,13.1997203 92.6776975,13.4793754 91.7828012,13.4793754 L87.5040783,13.4793754 C85.8541133,13.4793754 85.015148,14.2344442 85.015148,15.3810301 C85.015148,16.5555814 85.9100443,17.4504777 86.8888371,17.4504777 C87.3642508,17.3106502 89.9370776,16.4996504 90.8879049,16.4996504 C91.9505943,16.4996504 92.6217665,16.8352365 93.3209042,17.8140294 C93.9361454,18.7089257 94.243766,19.6877185 94.243766,20.5826148 C94.243766,22.847821 92.2582149,24.4977861 89.3218364,24.4977861 C86.1617339,24.4977861 83.8965276,22.7079935 82.4982522,21.2258215 L83.3092519,20.3868562 C84.3160103,21.4495456 86.2456304,22.7079935 88.5947332,22.7079935 C91.5870426,22.7079935 92.8175251,21.141925 92.8175251,19.6317875 C92.8175251,18.7928222 92.3141459,18.2614775 91.5590771,18.2614775 C90.2726637,18.2614775 87.4761128,19.3241669 87.4761128,19.3241669 C85.6024237,18.9885808 83.5050105,16.6674435 83.5050105,14.3463062 C83.5050105,12.7522722 84.7354929,11.6336518 86.8608716,11.6336518 C88.7625262,11.6336518 90.7201119,11.8573759 90.999767,11.8853414 L90.999767,9.06082498 L78.862736,9.06082498 L78.862736,25.6443719 L78.5271498,25.6443719 L77.8280121,25.1130273 L76.9051503,24.5257516 L76.9051503,9.06082498 L71.2561175,9.06082498 L71.2561175,25.6443719 L70.9205313,25.6443719 L70.2213936,25.1130273 L69.2985318,24.5257516 L69.2985318,9.06082498 L63.649499,9.06082498 L63.649499,25.6443719 L63.3139128,25.6443719 L62.6427406,25.1130273 L61.6919133,24.5257516 C61.6919133,24.5257516 61.8037753,22.1207178 61.8037753,18.1496155 C61.0766721,18.8767187 59.6224656,19.9394081 58.0563971,19.9394081 C56.9377767,19.9394081 55.9310184,19.3800979 54.9522256,18.6529946 C53.7497087,17.7580983 53.1903985,16.9750641 53.1903985,15.4928921 L53.1903985,9.06082498 L42.3397809,9.06082498 L42.3392183,9.67314361 C42.3295768,12.0457691 42.1989176,13.7393511 42.1719879,13.9547891 C42.563505,13.2836169 43.5143323,12.3327896 45.1083663,12.3327896 C46.3947798,12.3327896 47.7371242,13.1158238 48.7438825,14.2903752 C49.5828478,15.2412025 50.198089,16.4716849 50.198089,17.7301328 C50.198089,20.2190632 48.492193,21.6173386 46.3108832,21.6173386 C46.0032626,21.6173386 45.7515731,21.5893731 45.4159869,21.5334421 L44.2414356,19.8555115 L44.3532976,19.659753 C44.6888837,19.7436495 45.1642974,19.7995805 45.4998835,19.7995805 C47.2896761,19.7995805 48.548124,18.7368912 48.548124,16.9191331 C48.548124,15.3810301 47.4015381,14.0386856 45.7515731,14.0386856 C43.4863668,14.0386856 42.2838499,16.0242368 42.2838499,18.6529946 L42.2838499,25.6443719 L41.9482638,25.6443719 L41.2770916,25.1130273 L40.3821953,24.5537171 C40.4381263,22.4003729 40.5220228,21.0580284 40.5499883,19.8555115 C40.1305057,20.5266838 39.1517129,21.4775111 37.5297134,21.4775111 C36.2712654,21.4775111 34.9009555,20.6944768 33.8941972,19.5199254 C33.0831974,18.5690981 32.4399907,17.3106502 32.4399907,16.0522023 C32.4399907,13.5912375 34.1738522,12.2209275 36.355162,12.2209275 C36.6907481,12.2209275 36.9144722,12.248893 37.2500583,12.3327896 L38.4246096,13.9827546 L38.3407131,14.2064787 C37.9771615,14.1225821 37.4737823,14.0386856 37.1102307,14.0386856 C35.4043347,14.0386856 34.0899557,15.045444 34.0899557,16.8632021 C34.0899557,18.3733395 35.2085761,19.7995805 36.8865066,19.7995805 C39.1796784,19.7995805 40.3821953,17.8699604 40.3821953,15.213237 L40.3821953,9.06082498 L28.6646469,9.06082498 L28.6646469,25.6443719 L28.3290608,25.6443719 L27.6299231,25.1130273 L26.7070613,24.5257516 L26.7070613,9.06082498 L21.0580284,9.06082498 L21.0580284,25.6443719 L20.7504078,25.6443719 L20.0512701,25.1130273 L19.1284083,24.5257516 C19.1284083,24.5257516 19.2682358,22.3724074 19.2682358,19.603822 C18.7648567,20.4987182 17.7021673,21.6173386 15.6327196,21.6173386 C14.0946166,21.6173386 12.7802377,20.8063388 11.6895828,19.603822 C10.7946866,18.5690981 10.0116523,17.1148916 10.0116523,15.6606852 C10.0116523,13.2836169 11.9412724,11.6895828 14.3742717,11.6895828 C14.9335819,11.6895828 15.6047541,11.7734794 16.0801678,11.9972034 L17.1148916,13.7030995 L16.9470986,13.9268236 C16.3318574,13.7030995 15.6327196,13.563272 15.045444,13.563272 C13.1997203,13.563272 11.6616173,14.6259613 11.6616173,16.639478 C11.6616173,18.12165 12.7522722,19.9114426 15.101375,19.9114426 C17.2826847,19.9114426 19.1563738,18.289443 19.1563738,15.7445817 L19.1563738,9.06082498 L6.12444652,9.06082498 L6.12444652,25.6443719 L5.78886041,25.6443719 L5.08972268,25.1130273 L4.16686087,24.5257516 L4.16686087,9.06082498 L1.14658588,9.06082498 L0.475413656,8.10999767 L4.26325641e-14,7.55068749 L4.26325641e-14,7.2989979 L4.58634351,7.2989979 L4.58634351,7.18713587 C3.85924027,6.29223957 3.41179212,5.14565369 3.41179212,3.99906782 C3.41179212,1.84572361 5.28548124,-2.48689958e-14 9.4243766,-2.48689958e-14 C12.7243067,-2.48689958e-14 17.0589606,1.37030995 21.0859939,4.67024004 L20.3868562,5.34141226 C16.9191331,2.79655092 13.3395479,1.73386157 10.1794454,1.73386157 C7.04730832,1.73386157 5.22955022,2.99230948 5.22955022,4.8659986 C5.22955022,5.84479142 5.53717082,6.59986017 5.92868795,7.2989979 L27.1265439,7.2989979 L27.1265439,7.18713587 C26.3994407,6.29223957 25.9519925,5.11768818 25.9519925,3.97110231 C25.9519925,1.8177581 27.7977162,-2.48689958e-14 31.6569564,-2.48689958e-14 C34.7890935,-2.48689958e-14 38.7881613,1.34234444 42.619436,4.67024004 L41.8923328,5.34141226 C38.6483337,2.76858541 35.3484036,1.73386157 32.4120252,1.73386157 C29.5036122,1.73386157 27.7697506,2.99230948 27.7697506,4.83803309 C27.7697506,5.81682591 28.0773712,6.59986017 28.4688884,7.2989979 L69.9417385,7.2989979 C68.2917735,3.24399907 66.1943603,1.78979259 64.6562573,1.78979259 C63.3978094,1.78979259 62.7546027,2.62875787 62.7546027,3.66348171 C62.7546027,4.33465393 63.0342577,5.03379166 63.5096714,5.59310184 L62.6147751,5.87275693 C61.6639478,5.22955022 60.9368446,4.05499883 60.9368446,2.85248194 C60.9368446,1.37030995 62.1113959,-2.48689958e-14 63.9850851,-2.48689958e-14 C66.0824983,-2.48689958e-14 68.7392216,1.76182708 71.0323934,7.2989979 L77.324633,7.2989979 L77.324633,7.18713587 C76.5975297,6.29223957 76.1500816,5.11768818 76.1500816,3.97110231 C76.1500816,1.8177581 77.9958052,-2.48689958e-14 81.8550454,-2.48689958e-14 C84.9871825,-2.48689958e-14 88.9862503,1.34234444 92.8175251,4.67024004 L92.0904218,5.34141226 C88.8464227,2.76858541 85.5464927,1.73386157 82.6101142,1.73386157 C79.7017012,1.73386157 77.9678397,2.99230948 77.9678397,4.83803309 C77.9678397,5.81682591 78.2754603,6.59986017 78.6669774,7.2989979 L118.825449,7.2989979 Z M106.660452,9.06082498 L100.591937,9.06082498 C101.598695,10.2074109 102.297833,11.4658588 102.297833,12.5285481 C102.297833,13.8149615 101.766488,14.9335819 98.802144,16.3318574 C98.5504544,16.4157539 98.4945234,16.5555814 98.4945234,16.7233745 C98.4945234,17.3945467 99.5292473,19.1563738 102.185971,19.1563738 C104.591004,19.1563738 106.157073,17.7860639 106.660452,16.807271 L106.660452,9.06082498 Z M61.7478443,9.06082498 L55.1200186,9.06082498 L55.1200186,16.3877884 C55.1200186,17.5064088 55.9030529,18.3733395 57.1894663,18.3733395 C58.9512934,18.3733395 60.7131205,17.1428571 61.7478443,15.6047541 L61.7478443,9.06082498 Z" id="awa-wordmark" fill="#000000" fill-rule="nonzero"></path>
    </g>
</svg>

<svg xmlns="http://www.w3.org/2000/svg" width="120" height="26"><path fill="#000" fill-rule="nonzero" d="m118.825 7.299.672.95.503.56v.252h-3.803v16.583h-.336l-.699-.531-.923-.587V9.06h-5.649v16.583h-.336l-.699-.531-.95-.587s.14-2.405.14-5.314c-.588.727-1.986 1.678-3.944 1.678-3.188 0-5.145-2.293-6.712-5.509 3.608-1.175 4.391-2.35 4.391-3.58 0-1.118-.7-2.069-1.286-2.74H92.9v3.663c0 .476-.223.755-1.118.755h-4.279c-1.65 0-2.489.755-2.489 1.902 0 1.175.895 2.07 1.874 2.07.475-.14 3.048-.951 3.999-.951 1.063 0 1.734.335 2.433 1.314.615.895.923 1.874.923 2.769 0 2.265-1.986 3.915-4.922 3.915-3.16 0-5.425-1.79-6.824-3.272l.811-.84c1.007 1.064 2.937 2.322 5.286 2.322 2.992 0 4.223-1.566 4.223-3.076 0-.84-.504-1.37-1.259-1.37-1.286 0-4.083 1.062-4.083 1.062-1.874-.335-3.971-2.657-3.971-4.978 0-1.594 1.23-2.712 3.356-2.712 1.902 0 3.86.223 4.139.251V9.061H78.863v16.583h-.336l-.699-.531-.923-.587V9.06h-5.649v16.583h-.335l-.7-.531-.922-.587V9.06h-5.65v16.583h-.335l-.671-.531-.951-.587s.112-2.405.112-6.376c-.727.727-2.182 1.79-3.748 1.79-1.118 0-2.125-.56-3.104-1.287-1.202-.895-1.762-1.678-1.762-3.16V9.06H42.34v.612c-.01 2.373-.141 4.066-.168 4.282.392-.671 1.342-1.622 2.936-1.622 1.287 0 2.63.783 3.636 1.957.839.951 1.454 2.182 1.454 3.44 0 2.49-1.706 3.887-3.887 3.887a5.08 5.08 0 0 1-.895-.084l-1.175-1.677.112-.196c.336.084.811.14 1.147.14 1.79 0 3.048-1.063 3.048-2.88 0-1.539-1.146-2.881-2.796-2.881-2.266 0-3.468 1.985-3.468 4.614v6.991h-.336l-.67-.531-.896-.56c.056-2.153.14-3.495.168-4.697a3.516 3.516 0 0 1-3.02 1.622c-1.259 0-2.629-.784-3.636-1.958-.81-.95-1.454-2.21-1.454-3.468 0-2.46 1.734-3.831 3.915-3.831.336 0 .56.028.895.112l1.175 1.65-.084.223c-.364-.083-.867-.167-1.23-.167-1.707 0-3.021 1.006-3.021 2.824 0 1.51 1.119 2.937 2.797 2.937 2.293 0 3.495-1.93 3.495-4.587V9.061H28.665v16.583h-.336l-.7-.531-.922-.587V9.06h-5.649v16.583h-.308l-.699-.531-.923-.587s.14-2.154.14-4.922c-.503.895-1.566 2.013-3.635 2.013-1.538 0-2.853-.81-3.943-2.013-.895-1.035-1.678-2.49-1.678-3.943 0-2.377 1.93-3.971 4.362-3.971.56 0 1.23.083 1.706.307l1.035 1.706-.168.224c-.615-.224-1.314-.364-1.902-.364-1.845 0-3.383 1.063-3.383 3.076 0 1.483 1.09 3.272 3.44 3.272 2.18 0 4.054-1.622 4.054-4.166V9.06H6.124v16.583H5.79l-.7-.531-.922-.587V9.06h-3.02L.475 8.11 0 7.55V7.3h4.586v-.112C3.86 6.292 3.412 5.146 3.412 4 3.412 1.846 5.285 0 9.424 0c3.3 0 7.635 1.37 11.662 4.67l-.7.671C16.92 2.797 13.34 1.734 10.18 1.734c-3.132 0-4.95 1.258-4.95 3.132 0 .979.308 1.734.7 2.433h21.198v-.112c-.728-.895-1.175-2.07-1.175-3.216C25.952 1.818 27.798 0 31.657 0c3.132 0 7.131 1.342 10.962 4.67l-.727.671c-3.244-2.572-6.544-3.607-9.48-3.607-2.908 0-4.642 1.258-4.642 3.104 0 .979.307 1.762.699 2.461h41.473c-1.65-4.055-3.748-5.51-5.286-5.51-1.258 0-1.901.84-1.901 1.874 0 .672.28 1.37.755 1.93l-.895.28c-.951-.643-1.678-1.818-1.678-3.02C60.937 1.37 62.11 0 63.985 0c2.097 0 4.754 1.762 7.047 7.299h6.293v-.112c-.727-.895-1.175-2.07-1.175-3.216C76.15 1.818 77.996 0 81.855 0c3.132 0 7.131 1.342 10.963 4.67l-.728.671c-3.244-2.572-6.544-3.607-9.48-3.607-2.908 0-4.642 1.258-4.642 3.104 0 .979.307 1.762.699 2.461h40.158ZM106.66 9.061h-6.068c1.007 1.146 1.706 2.405 1.706 3.468 0 1.286-.532 2.405-3.496 3.803-.252.084-.307.224-.307.391 0 .672 1.034 2.433 3.691 2.433 2.405 0 3.971-1.37 4.474-2.349V9.061Zm-44.912 0H55.12v7.327c0 1.118.783 1.985 2.07 1.985 1.761 0 3.523-1.23 4.558-2.768V9.06Z"/></svg>
